press_kit/Bazzite_Long_BW.svg

<?xml version="1.0" encoding="UTF-8" standalone="no"?>
<svg
   width="1956"
   height="600"
   viewBox="0 0 1956 600"
   fill="none"
   version="1.1"
   id="svg13"
   xmlns="http://www.w3.org/2000/svg"
   xmlns:svg="http://www.w3.org/2000/svg">
  <defs
     id="defs13" />
  <path
     fill-rule="evenodd"
     clip-rule="evenodd"
     d="m 180,100 c -44.183,0 -80,35.817 -80,80 v 73.6 46.4 c 0,110.457 89.543,200 200,200 110.457,0 200,-89.543 200,-200 0,-110.457 -89.543,-200 -200,-200 h -46.4 v 102.4 h 107.348 c 44.985,0 81.452,36.467 81.452,81.452 0,87.563 -70.984,158.548 -158.548,158.548 -44.985,0 -81.452,-36.467 -81.452,-81.452 V 253.6 H 100 V 202.4 H 202.4 V 100 Z m 73.6,260.948 V 253.6 h 107.348 c 16.708,0 30.252,13.544 30.252,30.252 0,59.286 -48.062,107.348 -107.348,107.348 -16.708,0 -30.252,-13.544 -30.252,-30.252 z"
     fill="#ffffff"
     id="path1" />
  <path
     fill-rule="evenodd"
     clip-rule="evenodd"
     d="m 178.4,119.2 c 0,-10.604 8.596,-19.2 19.2,-19.2 h 60.8 c 10.604,0 19.2,8.596 19.2,19.2 v 59.2 h 59.2 c 10.604,0 19.2,8.596 19.2,19.2 v 60.8 c 0,10.604 -8.596,19.2 -19.2,19.2 h -59.2 v 59.2 c 0,10.604 -8.596,19.2 -19.2,19.2 h -60.8 c -10.604,0 -19.2,-8.596 -19.2,-19.2 v -59.2 h -59.2 c -10.604,0 -19.2,-8.596 -19.2,-19.2 v -60.8 c 0,-10.604 8.596,-19.2 19.2,-19.2 h 59.2 z m 75.2,4.8 h -51.2 v 59.2 c 0,10.604 -8.596,19.2 -19.2,19.2 H 124 v 51.2 h 59.2 c 10.604,0 19.2,8.596 19.2,19.2 V 332 h 51.2 v -59.2 c 0,-10.604 8.596,-19.2 19.2,-19.2 H 332 v -51.2 h -59.2 c -10.604,0 -19.2,-8.596 -19.2,-19.2 z"
     fill="#ffffff"
     id="path2" />
  <path
     d="m 310,224.536 c 2.667,1.539 2.667,5.389 0,6.928 l -16.8,9.699 c -2.666,1.54 -6,-0.385 -6,-3.464 v -19.398 c 0,-3.079 3.334,-5.004 6,-3.464 z"
     fill="#ffffff"
     id="path3" />
  <path
     d="m 231.465,310 c -1.54,2.666 -5.389,2.666 -6.928,0 l -9.7,-16.8 c -1.54,-2.666 0.385,-6 3.464,-6 H 237.7 c 3.079,0 5.004,3.334 3.464,6 z"
     fill="#ffffff"
     id="path4" />
  <path
     d="m 224.537,146 c 1.539,-2.666 5.388,-2.666 6.928,0 l 9.699,16.8 c 1.54,2.666 -0.385,6 -3.464,6 h -19.399 c -3.079,0 -5.004,-3.334 -3.464,-6 z"
     fill="#ffffff"
     id="path5" />
  <path
     d="m 146,231.464 c -2.667,-1.539 -2.667,-5.389 0,-6.928 l 16.8,-9.699 c 2.666,-1.54 6,0.385 6,3.464 v 19.398 c 0,3.079 -3.334,5.004 -6,3.464 z"
     fill="#ffffff"
     id="path6" />
  <path
     d="m 682.025,442.835 c -20.02,0 -37.73,-4.235 -53.13,-12.705 -15.4,-8.47 -27.463,-20.533 -36.19,-36.19 C 584.235,378.027 580,359.29 580,337.73 V 157.165 h 44.275 V 271.51 h 0.385 c 4.107,-6.93 9.497,-12.962 16.17,-18.095 6.673,-5.133 14.117,-9.112 22.33,-11.935 8.213,-2.823 16.94,-4.235 26.18,-4.235 18.737,0 35.163,4.235 49.28,12.705 14.373,8.213 25.538,19.763 33.495,34.65 8.213,14.887 12.32,32.34 12.32,52.36 0,15.657 -2.438,30.03 -7.315,43.12 -4.62,12.833 -11.422,23.998 -20.405,33.495 -8.727,9.497 -19.378,16.812 -31.955,21.945 -12.577,4.877 -26.822,7.315 -42.735,7.315 z m 0,-37.73 c 11.293,0 21.303,-2.695 30.03,-8.085 8.727,-5.647 15.528,-13.347 20.405,-23.1 4.877,-9.753 7.315,-21.047 7.315,-33.88 0,-12.577 -2.438,-23.742 -7.315,-33.495 -4.877,-9.753 -11.678,-17.453 -20.405,-23.1 -8.47,-5.647 -18.352,-8.47 -29.645,-8.47 -11.293,0 -21.303,2.823 -30.03,8.47 -8.727,5.39 -15.528,12.962 -20.405,22.715 -4.877,9.753 -7.315,21.047 -7.315,33.88 0,12.833 2.438,24.127 7.315,33.88 4.877,9.753 11.678,17.453 20.405,23.1 8.727,5.39 18.608,8.085 29.645,8.085 z"
     fill="#ffffff"
     id="path7" />
  <path
     d="m 894.446,442.835 c -18.737,0 -34.907,-4.62 -48.51,-13.86 -13.604,-9.24 -24.127,-21.56 -31.57,-36.96 -7.187,-15.657 -10.78,-32.853 -10.78,-51.59 0,-19.507 4.106,-36.96 12.32,-52.36 8.47,-15.657 20.405,-27.977 35.805,-36.96 15.656,-9.24 34.265,-13.86 55.825,-13.86 21.303,0 39.398,4.62 54.285,13.86 15.143,8.983 26.693,21.303 34.65,36.96 8.209,15.4 12.319,32.597 12.319,51.59 v 98.56 H 964.516 V 401.64 h -0.77 c -3.85,7.187 -8.855,13.988 -15.015,20.405 -6.16,6.16 -13.732,11.165 -22.715,15.015 -8.984,3.85 -19.507,5.775 -31.57,5.775 z m 11.935,-37.73 c 11.55,0 21.56,-2.823 30.03,-8.47 8.726,-5.903 15.4,-13.732 20.02,-23.485 4.876,-10.01 7.315,-21.175 7.315,-33.495 0,-12.32 -2.31,-23.228 -6.93,-32.725 -4.62,-9.753 -11.165,-17.453 -19.635,-23.1 -8.47,-5.903 -18.609,-8.855 -30.415,-8.855 -12.32,0 -22.844,2.952 -31.57,8.855 -8.727,5.647 -15.4,13.347 -20.02,23.1 -4.62,9.753 -6.93,20.79 -6.93,33.11 0,12.063 2.31,23.1 6.93,33.11 4.62,9.753 11.165,17.582 19.635,23.485 8.726,5.647 19.25,8.47 31.57,8.47 z"
     fill="#ffffff"
     id="path8" />
  <path
     d="m 1082.17,438.215 c -8.47,0 -16.04,-2.053 -22.71,-6.16 -6.68,-4.107 -12.07,-9.625 -16.17,-16.555 -3.85,-6.93 -5.78,-14.502 -5.78,-22.715 0,-8.213 2.06,-15.657 6.16,-22.33 4.11,-6.673 9.76,-12.448 16.94,-17.325 l 85.47,-55.825 c 2.57,-1.283 4.11,-2.695 4.62,-4.235 0.77,-1.54 1.16,-3.08 1.16,-4.62 0,-2.31 -0.9,-4.363 -2.7,-6.16 -1.54,-1.797 -3.72,-2.695 -6.54,-2.695 h -95.48 v -37.73 h 108.57 c 8.47,0 15.91,2.053 22.33,6.16 6.67,4.107 11.93,9.625 15.78,16.555 4.11,6.93 6.16,14.502 6.16,22.715 0,8.213 -2.05,15.657 -6.16,22.33 -4.1,6.673 -9.75,12.448 -16.94,17.325 l -85.08,55.825 c -2.31,1.283 -3.98,2.695 -5.01,4.235 -0.77,1.54 -1.15,3.08 -1.15,4.62 0,2.31 0.9,4.363 2.69,6.16 1.8,1.797 4.11,2.695 6.93,2.695 h 100.87 v 37.73 z"
     fill="#ffffff"
     id="path9" />
  <path
     d="m 1266.13,438.215 c -8.47,0 -16.04,-2.053 -22.71,-6.16 -6.68,-4.107 -12.07,-9.625 -16.17,-16.555 -3.85,-6.93 -5.78,-14.502 -5.78,-22.715 0,-8.213 2.05,-15.657 6.16,-22.33 4.11,-6.673 9.75,-12.448 16.94,-17.325 l 85.47,-55.825 c 2.57,-1.283 4.11,-2.695 4.62,-4.235 0.77,-1.54 1.16,-3.08 1.16,-4.62 0,-2.31 -0.9,-4.363 -2.7,-6.16 -1.54,-1.797 -3.72,-2.695 -6.54,-2.695 h -95.48 v -37.73 h 108.57 c 8.47,0 15.91,2.053 22.33,6.16 6.67,4.107 11.93,9.625 15.78,16.555 4.11,6.93 6.16,14.502 6.16,22.715 0,8.213 -2.05,15.657 -6.16,22.33 -4.11,6.673 -9.75,12.448 -16.94,17.325 l -85.08,55.825 c -2.31,1.283 -3.98,2.695 -5.01,4.235 -0.77,1.54 -1.15,3.08 -1.15,4.62 0,2.31 0.89,4.363 2.69,6.16 1.8,1.797 4.11,2.695 6.93,2.695 h 100.87 v 37.73 z"
     fill="#ffffff"
     id="path10" />
  <path
     d="m 1429.68,438.215 v -196.35 h 44.28 v 196.35 z m 21.95,-223.685 c -7.7,0 -14.38,-2.823 -20.02,-8.47 -5.65,-5.647 -8.47,-12.32 -8.47,-20.02 0,-7.7 2.82,-14.373 8.47,-20.02 5.64,-5.647 12.32,-8.47 20.02,-8.47 7.95,0 14.63,2.823 20.02,8.47 5.64,5.647 8.47,12.32 8.47,20.02 0,7.7 -2.83,14.373 -8.47,20.02 -5.39,5.647 -12.07,8.47 -20.02,8.47 z"
     fill="#ffffff"
     id="path11" />
  <path
     d="m 1594.82,438.215 c -17.45,0 -31.18,-5.005 -41.19,-15.015 C 1543.87,413.19 1539,399.587 1539,382.39 V 192.585 h 43.89 v 187.88 c 0,5.903 1.79,10.78 5.39,14.63 3.59,3.593 8.34,5.39 14.24,5.39 h 41.2 v 37.73 z m -89.7,-158.62 v -37.73 h 138.98 v 37.73 z"
     fill="#ffffff"
     id="path12" />
  <path
     d="m 1778.29,438.215 c -22.08,0 -41.46,-4.107 -58.14,-12.32 -16.43,-8.47 -29.26,-20.02 -38.5,-34.65 -9.24,-14.887 -13.86,-31.955 -13.86,-51.205 0,-20.277 4.11,-38.115 12.32,-53.515 8.21,-15.4 19.51,-27.463 33.88,-36.19 14.37,-8.727 30.93,-13.09 49.67,-13.09 21.04,0 38.37,4.492 51.97,13.475 13.6,8.983 23.61,21.047 30.03,36.19 6.67,15.143 10.01,32.083 10.01,50.82 0,2.567 -0.13,5.518 -0.38,8.855 -0.26,3.337 -0.65,5.903 -1.16,7.7 h -139.37 c 1.54,10.267 5.26,18.865 11.17,25.795 5.9,6.673 13.34,11.807 22.33,15.4 8.98,3.337 18.99,5.005 30.03,5.005 h 52.74 v 37.73 z m -63.91,-113.96 h 97.02 c -0.26,-4.877 -1.03,-9.753 -2.31,-14.63 -1.03,-4.877 -2.83,-9.497 -5.39,-13.86 -2.31,-4.363 -5.39,-8.085 -9.24,-11.165 -3.6,-3.337 -7.96,-5.903 -13.09,-7.7 -5.14,-2.053 -11.04,-3.08 -17.71,-3.08 -7.7,0 -14.51,1.54 -20.41,4.62 -5.9,2.823 -10.91,6.673 -15.01,11.55 -4.11,4.62 -7.32,10.01 -9.63,16.17 -2.05,5.903 -3.46,11.935 -4.23,18.095 z"
     fill="#ffffff"
     id="path13" />
</svg>

<svg width="1956" height="600" viewBox="0 0 1956 600" fill="none" xmlns="http://www.w3.org/2000/svg">
<path fill-rule="evenodd" clip-rule="evenodd" d="M180 100C135.817 100 100 135.817 100 180V253.6V300C100 410.457 189.543 500 300 500C410.457 500 500 410.457 500 300C500 189.543 410.457 100 300 100H253.6V202.4H360.948C405.933 202.4 442.4 238.867 442.4 283.852C442.4 371.415 371.416 442.4 283.852 442.4C238.867 442.4 202.4 405.933 202.4 360.948V253.6H100V202.4H202.4V100H180ZM253.6 360.948V253.6H360.948C377.656 253.6 391.2 267.144 391.2 283.852C391.2 343.138 343.138 391.2 283.852 391.2C267.144 391.2 253.6 377.656 253.6 360.948Z" fill="white"/>
<path fill-rule="evenodd" clip-rule="evenodd" d="M178.4 119.2C178.4 108.596 186.996 100 197.6 100H258.4C269.004 100 277.6 108.596 277.6 119.2V178.4H336.8C347.404 178.4 356 186.996 356 197.6V258.4C356 269.004 347.404 277.6 336.8 277.6H277.6V336.8C277.6 347.404 269.004 356 258.4 356H197.6C186.996 356 178.4 347.404 178.4 336.8V277.6H119.2C108.596 277.6 100 269.004 100 258.4V197.6C100 186.996 108.596 178.4 119.2 178.4H178.4V119.2ZM253.6 124H202.4V183.2C202.4 193.804 193.804 202.4 183.2 202.4H124V253.6H183.2C193.804 253.6 202.4 262.196 202.4 272.8V332H253.6V272.8C253.6 262.196 262.196 253.6 272.8 253.6H332V202.4H272.8C262.196 202.4 253.6 193.804 253.6 183.2V124Z" fill="white"/>
<path d="M310 224.536C312.667 226.075 312.667 229.925 310 231.464L293.2 241.163C290.534 242.703 287.2 240.778 287.2 237.699V218.301C287.2 215.222 290.534 213.297 293.2 214.837L310 224.536Z" fill="white"/>
<path d="M231.465 310C229.925 312.666 226.076 312.666 224.537 310L214.837 293.2C213.297 290.534 215.222 287.2 218.301 287.2H237.7C240.779 287.2 242.704 290.534 241.164 293.2L231.465 310Z" fill="white"/>
<path d="M224.537 146C226.076 143.334 229.925 143.334 231.465 146L241.164 162.8C242.704 165.466 240.779 168.8 237.7 168.8H218.301C215.222 168.8 213.297 165.466 214.837 162.8L224.537 146Z" fill="white"/>
<path d="M146 231.464C143.333 229.925 143.333 226.075 146 224.536L162.8 214.837C165.466 213.297 168.8 215.222 168.8 218.301V237.699C168.8 240.778 165.466 242.703 162.8 241.163L146 231.464Z" fill="white"/>
<path d="M682.025 442.835C662.005 442.835 644.295 438.6 628.895 430.13C613.495 421.66 601.432 409.597 592.705 393.94C584.235 378.027 580 359.29 580 337.73V157.165H624.275V271.51H624.66C628.767 264.58 634.157 258.548 640.83 253.415C647.503 248.282 654.947 244.303 663.16 241.48C671.373 238.657 680.1 237.245 689.34 237.245C708.077 237.245 724.503 241.48 738.62 249.95C752.993 258.163 764.158 269.713 772.115 284.6C780.328 299.487 784.435 316.94 784.435 336.96C784.435 352.617 781.997 366.99 777.12 380.08C772.5 392.913 765.698 404.078 756.715 413.575C747.988 423.072 737.337 430.387 724.76 435.52C712.183 440.397 697.938 442.835 682.025 442.835ZM682.025 405.105C693.318 405.105 703.328 402.41 712.055 397.02C720.782 391.373 727.583 383.673 732.46 373.92C737.337 364.167 739.775 352.873 739.775 340.04C739.775 327.463 737.337 316.298 732.46 306.545C727.583 296.792 720.782 289.092 712.055 283.445C703.585 277.798 693.703 274.975 682.41 274.975C671.117 274.975 661.107 277.798 652.38 283.445C643.653 288.835 636.852 296.407 631.975 306.16C627.098 315.913 624.66 327.207 624.66 340.04C624.66 352.873 627.098 364.167 631.975 373.92C636.852 383.673 643.653 391.373 652.38 397.02C661.107 402.41 670.988 405.105 682.025 405.105Z" fill="white"/>
<path d="M894.446 442.835C875.709 442.835 859.539 438.215 845.936 428.975C832.332 419.735 821.809 407.415 814.366 392.015C807.179 376.358 803.586 359.162 803.586 340.425C803.586 320.918 807.692 303.465 815.906 288.065C824.376 272.408 836.311 260.088 851.711 251.105C867.367 241.865 885.976 237.245 907.536 237.245C928.839 237.245 946.934 241.865 961.821 251.105C976.964 260.088 988.514 272.408 996.471 288.065C1004.68 303.465 1008.79 320.662 1008.79 339.655V438.215H964.516V401.64H963.746C959.896 408.827 954.891 415.628 948.731 422.045C942.571 428.205 934.999 433.21 926.016 437.06C917.032 440.91 906.509 442.835 894.446 442.835ZM906.381 405.105C917.931 405.105 927.941 402.282 936.411 396.635C945.137 390.732 951.811 382.903 956.431 373.15C961.307 363.14 963.746 351.975 963.746 339.655C963.746 327.335 961.436 316.427 956.816 306.93C952.196 297.177 945.651 289.477 937.181 283.83C928.711 277.927 918.572 274.975 906.766 274.975C894.446 274.975 883.922 277.927 875.196 283.83C866.469 289.477 859.796 297.177 855.176 306.93C850.556 316.683 848.246 327.72 848.246 340.04C848.246 352.103 850.556 363.14 855.176 373.15C859.796 382.903 866.341 390.732 874.811 396.635C883.537 402.282 894.061 405.105 906.381 405.105Z" fill="white"/>
<path d="M1082.17 438.215C1073.7 438.215 1066.13 436.162 1059.46 432.055C1052.78 427.948 1047.39 422.43 1043.29 415.5C1039.44 408.57 1037.51 400.998 1037.51 392.785C1037.51 384.572 1039.57 377.128 1043.67 370.455C1047.78 363.782 1053.43 358.007 1060.61 353.13L1146.08 297.305C1148.65 296.022 1150.19 294.61 1150.7 293.07C1151.47 291.53 1151.86 289.99 1151.86 288.45C1151.86 286.14 1150.96 284.087 1149.16 282.29C1147.62 280.493 1145.44 279.595 1142.62 279.595H1047.14V241.865H1155.71C1164.18 241.865 1171.62 243.918 1178.04 248.025C1184.71 252.132 1189.97 257.65 1193.82 264.58C1197.93 271.51 1199.98 279.082 1199.98 287.295C1199.98 295.508 1197.93 302.952 1193.82 309.625C1189.72 316.298 1184.07 322.073 1176.88 326.95L1091.8 382.775C1089.49 384.058 1087.82 385.47 1086.79 387.01C1086.02 388.55 1085.64 390.09 1085.64 391.63C1085.64 393.94 1086.54 395.993 1088.33 397.79C1090.13 399.587 1092.44 400.485 1095.26 400.485H1196.13V438.215H1082.17Z" fill="white"/>
<path d="M1266.13 438.215C1257.66 438.215 1250.09 436.162 1243.42 432.055C1236.74 427.948 1231.35 422.43 1227.25 415.5C1223.4 408.57 1221.47 400.998 1221.47 392.785C1221.47 384.572 1223.52 377.128 1227.63 370.455C1231.74 363.782 1237.38 358.007 1244.57 353.13L1330.04 297.305C1332.61 296.022 1334.15 294.61 1334.66 293.07C1335.43 291.53 1335.82 289.99 1335.82 288.45C1335.82 286.14 1334.92 284.087 1333.12 282.29C1331.58 280.493 1329.4 279.595 1326.58 279.595H1231.1V241.865H1339.67C1348.14 241.865 1355.58 243.918 1362 248.025C1368.67 252.132 1373.93 257.65 1377.78 264.58C1381.89 271.51 1383.94 279.082 1383.94 287.295C1383.94 295.508 1381.89 302.952 1377.78 309.625C1373.67 316.298 1368.03 322.073 1360.84 326.95L1275.76 382.775C1273.45 384.058 1271.78 385.47 1270.75 387.01C1269.98 388.55 1269.6 390.09 1269.6 391.63C1269.6 393.94 1270.49 395.993 1272.29 397.79C1274.09 399.587 1276.4 400.485 1279.22 400.485H1380.09V438.215H1266.13Z" fill="white"/>
<path d="M1429.68 438.215V241.865H1473.96V438.215H1429.68ZM1451.63 214.53C1443.93 214.53 1437.25 211.707 1431.61 206.06C1425.96 200.413 1423.14 193.74 1423.14 186.04C1423.14 178.34 1425.96 171.667 1431.61 166.02C1437.25 160.373 1443.93 157.55 1451.63 157.55C1459.58 157.55 1466.26 160.373 1471.65 166.02C1477.29 171.667 1480.12 178.34 1480.12 186.04C1480.12 193.74 1477.29 200.413 1471.65 206.06C1466.26 211.707 1459.58 214.53 1451.63 214.53Z" fill="white"/>
<path d="M1594.82 438.215C1577.37 438.215 1563.64 433.21 1553.63 423.2C1543.87 413.19 1539 399.587 1539 382.39V192.585H1582.89V380.465C1582.89 386.368 1584.68 391.245 1588.28 395.095C1591.87 398.688 1596.62 400.485 1602.52 400.485H1643.72V438.215H1594.82ZM1505.12 279.595V241.865H1644.1V279.595H1505.12Z" fill="white"/>
<path d="M1778.29 438.215C1756.21 438.215 1736.83 434.108 1720.15 425.895C1703.72 417.425 1690.89 405.875 1681.65 391.245C1672.41 376.358 1667.79 359.29 1667.79 340.04C1667.79 319.763 1671.9 301.925 1680.11 286.525C1688.32 271.125 1699.62 259.062 1713.99 250.335C1728.36 241.608 1744.92 237.245 1763.66 237.245C1784.7 237.245 1802.03 241.737 1815.63 250.72C1829.23 259.703 1839.24 271.767 1845.66 286.91C1852.33 302.053 1855.67 318.993 1855.67 337.73C1855.67 340.297 1855.54 343.248 1855.29 346.585C1855.03 349.922 1854.64 352.488 1854.13 354.285H1714.76C1716.3 364.552 1720.02 373.15 1725.93 380.08C1731.83 386.753 1739.27 391.887 1748.26 395.48C1757.24 398.817 1767.25 400.485 1778.29 400.485H1831.03V438.215H1778.29ZM1714.38 324.255H1811.4C1811.14 319.378 1810.37 314.502 1809.09 309.625C1808.06 304.748 1806.26 300.128 1803.7 295.765C1801.39 291.402 1798.31 287.68 1794.46 284.6C1790.86 281.263 1786.5 278.697 1781.37 276.9C1776.23 274.847 1770.33 273.82 1763.66 273.82C1755.96 273.82 1749.15 275.36 1743.25 278.44C1737.35 281.263 1732.34 285.113 1728.24 289.99C1724.13 294.61 1720.92 300 1718.61 306.16C1716.56 312.063 1715.15 318.095 1714.38 324.255Z" fill="white"/>
</svg>
